src/24/actions/transform-scale-horizontal.svg

<svg xmlns="http://www.w3.org/2000/svg" width="24" height="24" viewBox="0 0 24 24">
 <defs>
  <style id="current-color-scheme" type="text/css">
   .ColorScheme-Text { color:#565656; } .ColorScheme-Highlight { color:#5294e2; }
  </style>
 </defs>
 <path style="fill:currentColor" class="ColorScheme-Text" d="M 0.5078125 3.0078125 A 0.50005 0.50005 0 0 0 0.0078125 3.5078125 L 0.0078125 20.492188 A 0.50005 0.50005 0 0 0 0.5078125 20.992188 L 7.5117188 20.992188 L 16.486328 20.992188 L 23.492188 20.992188 A 0.50005 0.50005 0 0 0 23.992188 20.492188 L 23.992188 3.5078125 A 0.50005 0.50005 0 0 0 23.492188 3.0078125 L 16.486328 3.0078125 L 7.5117188 3.0078125 L 0.5078125 3.0078125 z M 1.0078125 4.0078125 L 7.0117188 4.0078125 L 7.0117188 15.080078 L 3.9609375 15.080078 L 3.9609375 13.080078 L 1.0078125 15.541016 L 1.0078125 4.0078125 z M 8.0117188 4.0078125 L 15.986328 4.0078125 L 15.986328 15.080078 L 8.0117188 15.080078 L 8.0117188 4.0078125 z M 16.986328 4.0078125 L 22.992188 4.0078125 L 22.992188 15.541016 L 20.039062 13.080078 L 20.039062 15.080078 L 16.986328 15.080078 L 16.986328 4.0078125 z M 1.0078125 15.619141 L 3.9609375 18.080078 L 3.9609375 16.080078 L 7.0117188 16.080078 L 7.0117188 19.992188 L 1.0078125 19.992188 L 1.0078125 15.619141 z M 22.992188 15.619141 L 22.992188 19.992188 L 16.986328 19.992188 L 16.986328 16.080078 L 20.039062 16.080078 L 20.039062 18.080078 L 22.992188 15.619141 z M 8.0117188 16.080078 L 15.986328 16.080078 L 15.986328 19.992188 L 8.0117188 19.992188 L 8.0117188 16.080078 z"/>
 <path style="fill:currentColor;opacity:0.3" class="ColorScheme-Text" d="M 1 4 L 1 20 L 23 20 L 23 4 L 1 4 z"/>
</svg>

<svg xmlns="http://www.w3.org/2000/svg" width="24" height="24"><defs><style id="current-color-scheme" type="text/css">.ColorScheme-Text{color:#565656}</style></defs><path class="ColorScheme-Text" d="M.508 3.008a.5.5 0 0 0-.5.5v16.984a.5.5 0 0 0 .5.5h22.984a.5.5 0 0 0 .5-.5V3.508a.5.5 0 0 0-.5-.5H.508zm.5 1h6.004V15.08H3.96v-2l-2.953 2.461V4.008zm7.004 0h7.974V15.08H8.012V4.008zm8.974 0h6.006V15.54l-2.953-2.46v2h-3.053V4.007zM1.008 15.619L3.96 18.08v-2h3.05v3.912H1.009V15.62zm21.984 0v4.373h-6.006V16.08h3.053v2l2.953-2.46zm-14.98.461h7.974v3.912H8.012V16.08z" fill="currentColor"/><path class="ColorScheme-Text" d="M1 4v16h22V4H1z" fill="currentColor" opacity=".3"/></svg>
